X: 1
T: Ivars schottis
O: Sweden
R: shottish
Z: 2009 John Chambers <jc:trillian.mit.edu>
S: Matt Fichtenbaum 2009-3
M: 2/4
L: 1/16
K: A
|: "E7"E2GB "A"A2ce | "D"f2ed "A"e2c2 \
| "E7"e2e2 edB2 | "E7"d2d2 "A"dcA2 |\
| "E7"E2GB "A"A2ce | "D"f2ed "A"e2c2 \
| "E7"e2e2 edBG | "A"A2c2 A4 :|
|: "D"f2d2 f2d2 | "A"e2c2 e4 \
| "E"cdfe cdBG | "A"AGAc e4 |\
| "D"f2d2 f2d2 | "A"e2c2 e4 \
| "E"cdfe cdBG | "A"A2c2 A4 :|
